X:20
T:Sju och sjutti k\"arringar
R:sl\"angpolska
H:efter Karl August Lindblom, Rejmyre, Skedevi, \"Osterg\"otland
H:Se \"aven #19
H:St\"amning: AEAC#
A:\"Osterg\"otland
B:SVL \"Ogl 319
Z:id:hn-sp-20
M:3/4
L:1/16
K:A
[c4A4] e3c (5d/e/d/c/d/e2 | f2e2 e2d2 d2c2 |
[c4A4] e3c (5d/e/d/c/d/e2 | f2e2 e8 :|
|: A,2"+"[c2A2E2A,2] "arco"[c2A2]"+"[c2A2E2A,2] "arco"[c2A2]"+"[c2A2E2A,2] |
A,CEC A,DFD A,CEC |
A,2"+"[c2A2E2A,2] "arco"[c2A2]"+"[c2A2E2A,2] "arco"[c2A2]"+"[c2A2E2A,2] |
A,CEC A,DFD A,CEC | A,2Bc d2dB c2cA | cBAG G2A2 A4 :|
<end>
<start>
